X: 10696
T: Down To Carlow
R: jig
M: 6/8
K: Adorian
|:AAA A2 G|E2 F G3|A2 B c2 d|e2 d c2 B|
AAA A2 G|E2 F G3|AAA B2 G|A3 A3:|
|:e2 f g2 f|e2 f g3|BBB B2 A|G2 A B2 d|
[2 e2 f g2 f|e2 f g3|BBB B2 G|A3 A3:|
[1 e2 f g2 e|a2 f g3|BBB B2 G|A3 A3||

